src/resources/mandatory/M033.svg

<svg height="264.567" width="264.568" xmlns="http://www.w3.org/2000/svg" xmlns:xlink="http://www.w3.org/1999/xlink"><clipPath id="a"><path d="m44.87 471.68h228.24v228.241h-228.24z"/></clipPath><g clip-path="url(#a)" fill-rule="evenodd" transform="matrix(1.33333 0 0 -1.33333 -79.703 913.35)"><path d="m0 0c54.79 0 99.213 44.438 99.213 99.177 0 54.81-44.423 99.248-99.213 99.248s-99.213-44.438-99.213-99.248c0-54.739 44.423-99.177 99.213-99.177" fill="#005387" transform="translate(158.99 486.588)"/><g fill="#ecece7"><path d="m0 0 19.295 13.654 5.492-7.774-19.294-13.653z" transform="translate(147.41 597.617)"/><path d="m0 0-.031-.72-.095-.72-.14-.703-.219-.704-.25-.672-.329-.641-.36-.626-.423-.594-.469-.548-.517-.515-.547-.47-.595-.422-.61-.36-.658-.329-.673-.25-.688-.218-.72-.141-.704-.095-.736-.03-.719.03-.72.095-.704.141-.689.218-.673.25-.657.329-.626.36-.579.422-.548.47-.516.515-.47.548-.422.594-.376.626-.313.641-.266.672-.203.704-.141.703-.094.72-.031.72v31.421l.031.719.094.72.141.72.203.688.266.672.313.657.376.61.422.594.47.548.516.515.548.469.579.423.626.36.657.328.673.25.689.22.704.14.72.094.719.031.736-.031.704-.094.72-.14.688-.22.673-.25.658-.328.61-.36.595-.423.547-.469.517-.515.469-.548.423-.594.36-.61.329-.657.25-.672.219-.688.14-.72.095-.72.031-.719z" transform="translate(156.017 559.549)"/><path d="m182.588 556.233h-10.86v-29.904h10.86z"/><path d="m147.253 561.676h29.905v-10.885h-29.905z"/><path d="m0 0-4.836 23.163 9.311 1.939 4.835-23.147z" transform="translate(164.796 606.406)"/><path d="m0 0 19.937 14.843.14-.563.204-.564.266-.547.313-.501.344-.484.407-.438.438-.407.485-.344.501-.312-19.936-14.859z" transform="translate(104.533 556.452)"/><path d="m0 0-13.161 35.769-.14.438-.078.438-.016.469.031.454.078.437.141.438.188.423.251.375.281.36.329.328.359.266.392.234.422.188 53.972 19.863-6.164 16.782-4.883-1.799 4.381-11.902-49.106-18.079-.656-.266-.626-.313-.595-.376-.564-.406-.547-.454-.501-.5-.454-.532-.407-.579-.375-.594-.313-.626-.282-.657-.204-.672-.171-.688-.11-.688-.063-.704v-.704l.063-.704.11-.688.156-.688.219-.673 13.176-35.769.438.407.47.344.516.313.532.266.564.204.563.156.595.094.594.031z" transform="translate(130.994 578.66)"/><path d="m0 0-.986.031-.986.078-.985.141-.955.204-.955.266-.939.296-.923.376-.892.407-.877.469-.844.532-.814.563-.767.61-.735.657-.704.704-.658.734-.61.782-.563.798-.533.845-.469.876-.407.891-.376.923-.296.938-.267.954-.203.97-.141.97-.078.985-.032 1.001v8.023l2.629 1.955.595-.046.595.031.579.078.578.125.58.187.532.251.516.297v-10.901l.032-.782.093-.767.141-.766.204-.751.25-.735.313-.719.36-.673.423-.672.453-.61.501-.594.563-.548.58-.516.625-.454.658-.422.688-.359.72-.314.72-.25.751-.203.767-.141.766-.093.783-.032h24.428v-6.6z" transform="translate(144.17 539.467)"/><path d="m0 0 6.604 2.424v31.249l-2.223-.751-2.206-.829-2.175-.891z" transform="translate(127.176 629.444)"/><path d="m0 0v44.606l-6.604-2.44v-25.369l6.072-16.484z" transform="translate(133.78 577.707)"/><path d="m0 0-20.234 12.903 7.793 1.72-.265 1.565-.33 1.532-.375 1.548-.438 1.518-.501 1.485-.563 1.486-.611 1.455-.657 1.439-.72 1.407-.766 1.376-.83 1.346-.876 1.313-.923 1.283-.971 1.251-1.017 1.204-1.064 1.173-1.096 1.127-1.157 1.094-1.189 1.032 11.58 13.717 1.423-1.236 1.393-1.298 1.346-1.329 1.299-1.377 1.267-1.423 1.205-1.454 1.174-1.487 1.126-1.532 1.065-1.564 1.017-1.611.97-1.626.924-1.658.86-1.69.813-1.72.751-1.736.689-1.767.643-1.783.593-1.799.517-1.829.47-1.831.422-1.861.344-1.861 7.793 1.736z" transform="translate(200.553 586.528)"/><path d="m0 0-.016.422-.094.423-.141.406-.187.391-.235.36-.297.328-.313.281-.361.251-.391.188-.406.14-.423.079-.438.031-.423-.031-.438-.079-.406-.14-.376-.188-.36-.251-.329-.281-.282-.328-.25-.36-.188-.391-.14-.406-.079-.423-.031-.422.031-.438.079-.422.14-.407.188-.391.25-.36.282-.328.329-.282.36-.234.376-.203.406-.141.438-.078.423-.032.438.032.423.078.406.141.391.203.361.234.313.282.297.328.235.36.187.391.141.407.094.422z" transform="translate(133.78 572.545)"/><path d="m0 0-.032.532-.093.516-.141.516-.204.5-.266.47-.313.422-.344.407-.407.36-.438.297-.454.265-.501.204-.516.14-.517.094-.531.031-.532-.031-.533-.094-.516-.14-.485-.204-.469-.265-.439-.297-.391-.36-.36-.407-.313-.422-.25-.47-.204-.5-.156-.516-.079-.516-.03-.532.03-.532.079-.531.156-.517.204-.485.25-.469.313-.438.36-.39.391-.361.439-.312.469-.251.485-.203.516-.156.533-.079.532-.03.531.03.517.079.516.156.501.203.454.251.438.312.407.361.344.39.313.438.266.469.204.485.141.517.093.531z" transform="translate(169.381 630.539)"/><path d="m0 0-.033.532-.093.516-.141.517-.203.5-.267.469-.297.422-.36.407-.406.344-.423.313-.47.265-.5.204-.516.14-.517.094-.532.032-.532-.032-.533-.094-.515-.14-.486-.204-.469-.265-.439-.313-.39-.344-.361-.407-.312-.422-.251-.469-.203-.5-.141-.517-.094-.516-.031-.532.031-.531.094-.532.141-.517.203-.484.251-.47.312-.437.361-.391.39-.36.439-.313.469-.25.486-.203.515-.157.533-.094.532-.015.532.015.517.094.516.157.5.203.47.25.423.313.406.36.36.391.297.437.267.47.203.484.141.517.093.532z" transform="translate(174.217 607.391)"/><path d="m0 0-.032.532-.078.532-.156.516-.204.485-.25.469-.313.438-.36.407-.392.344-.438.312-.469.251-.485.219-.516.141-.532.094-.533.031-.531-.031-.517-.094-.516-.141-.501-.219-.47-.251-.422-.312-.407-.344-.36-.407-.297-.438-.266-.469-.204-.485-.141-.516-.093-.532-.032-.532.032-.531.093-.517.141-.516.204-.5.266-.454.297-.437.36-.408.407-.343.422-.313.47-.266.501-.203.516-.141.517-.094.531-.031.533.031.532.094.516.141.485.203.469.266.438.313.392.343.36.408.313.437.25.454.204.5.156.516.078.517z" transform="translate(154.906 593.722)"/><path d="m0 0-.031.75-.078.735-.157.735-.188.72-.266.703-.313.673-.36.657-.422.61-.454.595-.517.547-.548.5-.579.47-.626.422-.656.36-.673.312-.704.25-.721.204-.735.156-.735.078-.752.032-.735-.032-.751-.078-.736-.156-.719-.204-.689-.25-.689-.312-.641-.36-.626-.422-.595-.47-.547-.5-.501-.547-.47-.595-.407-.61-.36-.657-.313-.673-.265-.703-.204-.72-.141-.735-.094-.735-.031-.75.031-.751.094-.735.141-.735.204-.719.265-.705.313-.672.36-.657.407-.626.47-.578.501-.548.547-.516.595-.453.626-.423.641-.36.689-.312.689-.266.719-.203.736-.141.751-.094.735-.015.752.015.735.094.735.141.721.203.704.266.673.312.656.36.626.423.579.453.548.516.517.548.454.578.422.626.36.657.313.672.266.705.188.719.157.735.078.735z" transform="translate(156.768 611.959)"/><path d="m0 0-.031.563-.094.563-.141.547-.204.533-.265.516-.313.469-.36.453-.391.392-.439.359-.485.313-.501.266-.531.203-.548.141-.564.094-.579.031-.563-.031-.563-.094-.548-.141-.532-.203-.501-.266-.485-.313-.438-.359-.407-.392-.36-.453-.313-.469-.25-.516-.203-.533-.141-.547-.094-.563-.031-.563.031-.563.094-.562.141-.548.203-.532.25-.516.313-.469.36-.454.407-.391.438-.359.485-.314.501-.265.532-.203.548-.141.563-.095.563-.03.579.03.564.095.548.141.531.203.501.265.485.314.439.359.391.391.36.454.313.469.265.516.204.532.141.548.094.562z" transform="translate(152.699 556.232)"/><path d="m0 0-.016.563-.094.563-.156.547-.203.533-.251.516-.312.469-.361.453-.406.392-.439.359-.469.313-.517.266-.531.203-.548.141-.563.094-.564.031-.563-.031-.564-.094-.548-.141-.531-.203-.517-.266-.469-.313-.439-.359-.406-.392-.36-.453-.313-.469-.251-.516-.203-.533-.156-.547-.078-.563-.032-.563.032-.563.078-.562.156-.548.203-.532.251-.516.313-.469.36-.454.406-.391.439-.359.469-.314.517-.265.531-.203.548-.141.564-.095.563-.03.564.03.563.095.548.141.531.203.517.265.469.314.439.359.406.391.361.454.312.469.251.516.203.532.156.548.094.562z" transform="translate(182.588 556.232)"/><path d="m0 0-.016.564-.094.562-.156.564-.203.531-.251.501-.312.469-.361.454-.406.39-.439.361-.469.312-.517.266-.531.204-.548.141-.563.093-.564.032-.563-.032-.564-.093-.548-.141-.531-.204-.517-.266-.469-.312-.439-.361-.406-.39-.36-.454-.313-.469-.251-.501-.203-.531-.156-.564-.078-.562-.032-.564.032-.562.078-.564.156-.547.203-.532.251-.516.313-.469.36-.438.406-.407.439-.359.469-.313.517-.251.531-.203.548-.156.564-.094.563-.016.564.016.563.094.548.156.531.203.517.251.469.313.439.359.406.407.361.438.312.469.251.516.203.532.156.547.094.564z" transform="translate(182.588 526.329)"/></g></g></svg>

<?xml version="1.0" encoding="UTF-8" standalone="no"?>
<svg
   height="264.56601"
   width="264.56735"
   version="1.1"
   id="svg22"
   xmlns="http://www.w3.org/2000/svg"
   xmlns:svg="http://www.w3.org/2000/svg">
  <defs
     id="defs22" />
  <clipPath
     id="a">
    <path
       d="M 44.87,471.68 H 273.11 V 699.921 H 44.87 Z"
       id="path1" />
  </clipPath>
  <g
     clip-path="url(#a)"
     fill-rule="evenodd"
     transform="matrix(1.33333,0,0,-1.33333,-79.702467,913.34838)"
     id="g22">
    <path
       d="m 0,0 c 54.79,0 99.213,44.438 99.213,99.177 0,54.81 -44.423,99.248 -99.213,99.248 -54.79,0 -99.213,-44.438 -99.213,-99.248 C -99.213,44.438 -54.79,0 0,0"
       fill="#005387"
       transform="translate(158.99,486.588)"
       id="path2" />
    <g
       fill="#ecece7"
       id="g21">
      <path
         d="M 0,0 19.295,13.654 24.787,5.88 5.493,-7.773 Z"
         transform="translate(147.41,597.617)"
         id="path3" />
      <path
         d="m 0,0 -0.031,-0.72 -0.095,-0.72 -0.14,-0.703 -0.219,-0.704 -0.25,-0.672 -0.329,-0.641 -0.36,-0.626 -0.423,-0.594 -0.469,-0.548 -0.517,-0.515 -0.547,-0.47 -0.595,-0.422 -0.61,-0.36 -0.658,-0.329 -0.673,-0.25 -0.688,-0.218 -0.72,-0.141 -0.704,-0.095 -0.736,-0.03 -0.719,0.03 -0.72,0.095 -0.704,0.141 -0.689,0.218 -0.673,0.25 -0.657,0.329 -0.626,0.36 -0.579,0.422 -0.548,0.47 -0.516,0.515 -0.47,0.548 -0.422,0.594 -0.376,0.626 -0.313,0.641 -0.266,0.672 -0.203,0.704 -0.141,0.703 -0.094,0.72 -0.031,0.72 v 31.421 l 0.031,0.719 0.094,0.72 0.141,0.72 0.203,0.688 0.266,0.672 0.313,0.657 0.376,0.61 0.422,0.594 0.47,0.548 0.516,0.515 0.548,0.469 0.579,0.423 0.626,0.36 0.657,0.328 0.673,0.25 0.689,0.22 0.704,0.14 0.72,0.094 0.719,0.031 0.736,-0.031 0.704,-0.094 0.72,-0.14 0.688,-0.22 0.673,-0.25 0.658,-0.328 0.61,-0.36 0.595,-0.423 0.547,-0.469 0.517,-0.515 0.469,-0.548 0.423,-0.594 0.36,-0.61 0.329,-0.657 0.25,-0.672 0.219,-0.688 0.14,-0.72 0.095,-0.72 L 0,31.421 Z"
         transform="translate(156.017,559.549)"
         id="path4" />
      <path
         d="m 182.588,556.233 h -10.86 v -29.904 h 10.86 z"
         id="path5" />
      <path
         d="m 147.253,561.676 h 29.905 v -10.885 h -29.905 z"
         id="path6" />
      <path
         d="M 0,0 -4.836,23.163 4.475,25.102 9.31,1.955 Z"
         transform="translate(164.796,606.406)"
         id="path7" />
      <path
         d="m 0,0 19.937,14.843 0.14,-0.563 0.204,-0.564 0.266,-0.547 0.313,-0.501 0.344,-0.484 0.407,-0.438 0.438,-0.407 0.485,-0.344 0.501,-0.312 L 3.099,-4.176 Z"
         transform="translate(104.533,556.452)"
         id="path8" />
      <path
         d="m 0,0 -13.161,35.769 -0.14,0.438 -0.078,0.438 -0.016,0.469 0.031,0.454 0.078,0.437 0.141,0.438 0.188,0.423 0.251,0.375 0.281,0.36 0.329,0.328 0.359,0.266 0.392,0.234 0.422,0.188 53.972,19.863 -6.164,16.782 -4.883,-1.799 4.381,-11.902 -49.106,-18.079 -0.656,-0.266 -0.626,-0.313 -0.595,-0.376 -0.564,-0.406 -0.547,-0.454 -0.501,-0.5 -0.454,-0.532 -0.407,-0.579 -0.375,-0.594 -0.313,-0.626 -0.282,-0.657 -0.204,-0.672 -0.171,-0.688 -0.11,-0.688 -0.063,-0.704 v -0.704 l 0.063,-0.704 0.11,-0.688 0.156,-0.688 0.219,-0.673 13.176,-35.769 0.438,0.407 0.47,0.344 0.516,0.313 0.532,0.266 0.564,0.204 0.563,0.156 0.595,0.094 0.594,0.031 z"
         transform="translate(130.994,578.66)"
         id="path9" />
      <path
         d="M 0,0 -0.986,0.031 -1.972,0.109 -2.957,0.25 -3.912,0.454 -4.867,0.72 -5.806,1.016 -6.729,1.392 -7.621,1.799 -8.498,2.268 -9.342,2.8 l -0.814,0.563 -0.767,0.61 -0.735,0.657 -0.704,0.704 -0.658,0.734 -0.61,0.782 -0.563,0.798 -0.533,0.845 -0.469,0.876 -0.407,0.891 -0.376,0.923 -0.296,0.938 -0.267,0.954 -0.203,0.97 -0.141,0.97 -0.078,0.985 -0.032,1.001 v 8.023 l 2.629,1.955 0.595,-0.046 0.595,0.031 0.579,0.078 0.578,0.125 0.58,0.187 0.532,0.251 0.516,0.297 V 17.001 l 0.032,-0.782 0.093,-0.767 0.141,-0.766 0.204,-0.751 0.25,-0.735 0.313,-0.719 0.36,-0.673 0.423,-0.672 0.453,-0.61 0.501,-0.594 0.563,-0.548 0.58,-0.516 0.625,-0.454 0.658,-0.422 0.688,-0.359 0.72,-0.314 0.72,-0.25 L -2.316,6.866 -1.549,6.725 -0.783,6.632 0,6.6 H 24.428 V 0 Z"
         transform="translate(144.17,539.467)"
         id="path10" />
      <path
         d="M 0,0 6.604,2.424 V 33.673 L 4.381,32.922 2.175,32.093 0,31.202 Z"
         transform="translate(127.176,629.444)"
         id="path11" />
      <path
         d="m 0,0 v 44.606 l -6.604,-2.44 V 16.797 L -0.532,0.313 Z"
         transform="translate(133.78,577.707)"
         id="path12" />
      <path
         d="m 0,0 -20.234,12.903 7.793,1.72 -0.265,1.565 -0.33,1.532 -0.375,1.548 -0.438,1.518 -0.501,1.485 -0.563,1.486 -0.611,1.455 -0.657,1.439 -0.72,1.407 -0.766,1.376 -0.83,1.346 -0.876,1.313 -0.923,1.283 -0.971,1.251 -1.017,1.204 -1.064,1.173 -1.096,1.127 -1.157,1.094 -1.189,1.032 11.58,13.717 1.423,-1.236 1.393,-1.298 1.346,-1.329 1.299,-1.377 1.267,-1.423 1.205,-1.454 1.174,-1.487 1.126,-1.532 1.065,-1.564 1.017,-1.611 0.97,-1.626 0.924,-1.658 0.86,-1.69 0.813,-1.72 0.751,-1.736 0.689,-1.767 0.643,-1.783 0.593,-1.799 0.517,-1.829 0.47,-1.831 0.422,-1.861 0.344,-1.861 7.793,1.736 z"
         transform="translate(200.553,586.528)"
         id="path13" />
      <path
         d="M 0,0 -0.016,0.422 -0.11,0.845 -0.251,1.251 -0.438,1.642 -0.673,2.002 -0.97,2.33 -1.283,2.611 -1.644,2.862 -2.035,3.05 -2.441,3.19 -2.864,3.269 -3.302,3.3 -3.725,3.269 -4.163,3.19 -4.569,3.05 -4.945,2.862 -5.305,2.611 -5.634,2.33 -5.916,2.002 -6.166,1.642 -6.354,1.251 -6.494,0.845 -6.573,0.422 -6.604,0 l 0.031,-0.438 0.079,-0.422 0.14,-0.407 0.188,-0.391 0.25,-0.36 0.282,-0.328 0.329,-0.282 0.36,-0.234 0.376,-0.203 0.406,-0.141 0.438,-0.078 0.423,-0.032 0.438,0.032 0.423,0.078 0.406,0.141 0.391,0.203 0.361,0.234 0.313,0.282 0.297,0.328 0.235,0.36 0.187,0.391 0.141,0.407 0.094,0.422 z"
         transform="translate(133.78,572.545)"
         id="path14" />
      <path
         d="M 0,0 -0.032,0.532 -0.125,1.048 -0.266,1.564 -0.47,2.064 -0.736,2.534 -1.049,2.956 -1.393,3.363 -1.8,3.723 -2.238,4.02 -2.692,4.285 -3.193,4.489 -3.709,4.629 -4.226,4.723 -4.757,4.754 -5.289,4.723 -5.822,4.629 -6.338,4.489 -6.823,4.285 -7.292,4.02 -7.731,3.723 -8.122,3.363 -8.482,2.956 -8.795,2.534 -9.045,2.064 -9.249,1.564 -9.405,1.048 -9.484,0.532 -9.514,0 l 0.03,-0.532 0.079,-0.531 0.156,-0.517 0.204,-0.485 0.25,-0.469 0.313,-0.438 0.36,-0.39 0.391,-0.361 0.439,-0.312 0.469,-0.251 0.485,-0.203 0.516,-0.156 0.533,-0.079 0.532,-0.03 0.531,0.03 0.517,0.079 0.516,0.156 0.501,0.203 0.454,0.251 0.438,0.312 0.407,0.361 0.344,0.39 0.313,0.438 0.266,0.469 0.204,0.485 0.141,0.517 0.093,0.531 z"
         transform="translate(169.381,630.539)"
         id="path15" />
      <path
         d="m 0,0 -0.033,0.532 -0.093,0.516 -0.141,0.517 -0.203,0.5 -0.267,0.469 -0.297,0.422 -0.36,0.407 -0.406,0.344 -0.423,0.313 -0.47,0.265 -0.5,0.204 -0.516,0.14 L -4.226,4.723 -4.758,4.755 -5.29,4.723 -5.823,4.629 -6.338,4.489 -6.824,4.285 -7.293,4.02 -7.732,3.707 -8.122,3.363 -8.483,2.956 -8.795,2.534 -9.046,2.065 -9.249,1.565 -9.39,1.048 -9.484,0.532 -9.515,0 l 0.031,-0.531 0.094,-0.532 0.141,-0.517 0.203,-0.484 0.251,-0.47 0.312,-0.437 0.361,-0.391 0.39,-0.36 0.439,-0.313 0.469,-0.25 0.486,-0.203 0.515,-0.157 0.533,-0.094 0.532,-0.015 0.532,0.015 0.517,0.094 0.516,0.157 0.5,0.203 0.47,0.25 0.423,0.313 0.406,0.36 0.36,0.391 0.297,0.437 0.267,0.47 0.203,0.484 0.141,0.517 0.093,0.532 z"
         transform="translate(174.217,607.391)"
         id="path16" />
      <path
         d="M 0,0 -0.032,0.532 -0.11,1.064 -0.266,1.58 -0.47,2.065 -0.72,2.534 -1.033,2.972 -1.393,3.379 -1.785,3.723 -2.223,4.035 -2.692,4.286 -3.177,4.505 -3.693,4.646 -4.225,4.74 -4.758,4.771 -5.289,4.74 -5.806,4.646 -6.322,4.505 -6.823,4.286 -7.293,4.035 -7.715,3.723 -8.122,3.379 -8.482,2.972 -8.779,2.534 -9.045,2.065 -9.249,1.58 -9.39,1.064 -9.483,0.532 -9.515,0 l 0.032,-0.531 0.093,-0.517 0.141,-0.516 0.204,-0.5 0.266,-0.454 0.297,-0.437 0.36,-0.408 0.407,-0.343 0.422,-0.313 0.47,-0.266 0.501,-0.203 0.516,-0.141 0.517,-0.094 0.531,-0.031 0.533,0.031 0.532,0.094 0.516,0.141 0.485,0.203 0.469,0.266 0.438,0.313 0.392,0.343 0.36,0.408 0.313,0.437 0.25,0.454 0.204,0.5 0.156,0.516 0.078,0.517 z"
         transform="translate(154.906,593.722)"
         id="path17" />
      <path
         d="m 0,0 -0.031,0.75 -0.078,0.735 -0.157,0.735 -0.188,0.72 -0.266,0.703 -0.313,0.673 -0.36,0.657 -0.422,0.61 -0.454,0.595 -0.517,0.547 -0.548,0.5 -0.579,0.47 -0.626,0.422 -0.656,0.36 -0.673,0.312 -0.704,0.25 -0.721,0.204 -0.735,0.156 -0.735,0.078 -0.752,0.032 -0.735,-0.032 -0.751,-0.078 -0.736,-0.156 -0.719,-0.204 -0.689,-0.25 -0.689,-0.312 -0.641,-0.36 -0.626,-0.422 -0.595,-0.47 -0.547,-0.5 -0.501,-0.547 -0.47,-0.595 -0.407,-0.61 -0.36,-0.657 L -18.294,3.643 -18.559,2.94 -18.763,2.22 -18.904,1.485 -18.998,0.75 -19.029,0 l 0.031,-0.751 0.094,-0.735 0.141,-0.735 0.204,-0.719 0.265,-0.705 0.313,-0.672 0.36,-0.657 0.407,-0.626 0.47,-0.578 0.501,-0.548 0.547,-0.516 0.595,-0.453 0.626,-0.423 0.641,-0.36 0.689,-0.312 0.689,-0.266 0.719,-0.203 0.736,-0.141 0.751,-0.094 0.735,-0.015 0.752,0.015 0.735,0.094 0.735,0.141 0.721,0.203 0.704,0.266 0.673,0.312 0.656,0.36 0.626,0.423 0.579,0.453 0.548,0.516 0.517,0.548 0.454,0.578 0.422,0.626 0.36,0.657 0.313,0.672 0.266,0.705 0.188,0.719 0.157,0.735 0.078,0.735 z"
         transform="translate(156.768,611.959)"
         id="path18" />
      <path
         d="M 0,0 -0.031,0.563 -0.125,1.126 -0.266,1.673 -0.47,2.206 -0.735,2.722 -1.048,3.191 -1.408,3.644 -1.799,4.036 -2.238,4.395 -2.723,4.708 -3.224,4.974 -3.755,5.177 -4.303,5.318 -4.867,5.412 -5.446,5.443 -6.009,5.412 -6.572,5.318 -7.12,5.177 -7.652,4.974 -8.153,4.708 -8.638,4.395 -9.076,4.036 -9.483,3.644 -9.843,3.191 -10.156,2.722 -10.406,2.206 -10.609,1.673 -10.75,1.126 -10.844,0.563 -10.875,0 l 0.031,-0.563 0.094,-0.562 0.141,-0.548 0.203,-0.532 0.25,-0.516 0.313,-0.469 0.36,-0.454 0.407,-0.391 0.438,-0.359 0.485,-0.314 0.501,-0.265 0.532,-0.203 0.548,-0.141 0.563,-0.095 0.563,-0.03 0.579,0.03 0.564,0.095 0.548,0.141 0.531,0.203 0.501,0.265 0.485,0.314 0.439,0.359 0.391,0.391 0.36,0.454 0.313,0.469 0.265,0.516 0.204,0.532 0.141,0.548 0.094,0.562 z"
         transform="translate(152.699,556.232)"
         id="path19" />
      <path
         d="M 0,0 -0.016,0.563 -0.11,1.126 -0.266,1.673 -0.469,2.206 -0.72,2.722 -1.032,3.191 -1.393,3.644 -1.799,4.036 -2.238,4.395 -2.707,4.708 -3.224,4.974 -3.755,5.177 -4.303,5.318 -4.866,5.412 -5.43,5.443 -5.993,5.412 -6.557,5.318 -7.105,5.177 -7.636,4.974 -8.153,4.708 -8.622,4.395 -9.061,4.036 -9.467,3.644 -9.827,3.191 -10.14,2.722 -10.391,2.206 -10.594,1.673 -10.75,1.126 -10.828,0.563 -10.86,0 l 0.032,-0.563 0.078,-0.562 0.156,-0.548 0.203,-0.532 0.251,-0.516 0.313,-0.469 0.36,-0.454 0.406,-0.391 0.439,-0.359 0.469,-0.314 0.517,-0.265 0.531,-0.203 0.548,-0.141 0.564,-0.095 0.563,-0.03 0.564,0.03 0.563,0.095 0.548,0.141 0.531,0.203 0.517,0.265 0.469,0.314 0.439,0.359 0.406,0.391 0.361,0.454 0.312,0.469 0.251,0.516 0.203,0.532 0.156,0.548 0.094,0.562 z"
         transform="translate(182.588,556.232)"
         id="path20" />
      <path
         d="M 0,0 -0.016,0.564 -0.11,1.126 -0.266,1.69 -0.469,2.221 -0.72,2.722 -1.032,3.191 -1.393,3.645 -1.799,4.035 -2.238,4.396 -2.707,4.708 -3.224,4.974 -3.755,5.178 -4.303,5.319 -4.866,5.412 -5.43,5.444 -5.993,5.412 -6.557,5.319 -7.105,5.178 -7.636,4.974 -8.153,4.708 -8.622,4.396 -9.061,4.035 -9.467,3.645 -9.827,3.191 -10.14,2.722 -10.391,2.221 -10.594,1.69 -10.75,1.126 -10.828,0.564 -10.86,0 l 0.032,-0.562 0.078,-0.564 0.156,-0.547 0.203,-0.532 0.251,-0.516 0.313,-0.469 0.36,-0.438 0.406,-0.407 0.439,-0.359 0.469,-0.313 0.517,-0.251 0.531,-0.203 0.548,-0.156 0.564,-0.094 0.563,-0.016 0.564,0.016 0.563,0.094 0.548,0.156 0.531,0.203 0.517,0.251 0.469,0.313 0.439,0.359 0.406,0.407 0.361,0.438 0.312,0.469 0.251,0.516 0.203,0.532 0.156,0.547 0.094,0.564 z"
         transform="translate(182.588,526.329)"
         id="path21" />
    </g>
  </g>
</svg>
